X: 47
T: Boys of Blue Hill
C: R-21
C: British Isles
M: C|
Z: Transcribed to abc by Mary Lou Knack
R: hornpipe
K: D
dB| "D"BAFA DAFA| "G"BA (3Bcd "A"e2de| "D"fgaf "A"egfe| "D"dfed "G"B2dB|
    "D"BAFA DAFA| "G"BA (3Bcd "A"e2de| "D"faaf "A"egfe| "D"d2d2 d2 :|
|:\
fg| "D"afdf a2gf| "G"efga b2ag| "D"fgaf "A"egfe| "D"dfed "G"B2 dB |
    "D"BAFA DAFA| "G"BA (3Bcd "A"e2de| "D"faaf "A"egfe| "D"d2d2 d2 :|
%%text 9/1/98.  Hornpipe.  Also known as "Beaux of Oak Hill".


